Newaita-dark/actions/22/format-text-symbol.svg

<?xml version="1.0" encoding="UTF-8"?>
<svg xmlns="http://www.w3.org/2000/svg" xmlns:xlink="http://www.w3.org/1999/xlink" width="22px" height="22px" viewBox="0 0 22 22" version="1.1">
<g id="surface1">
<path style=" stroke:none;fill-rule:nonzero;fill:rgb(87.843138%,87.843138%,87.843138%);fill-opacity:1;" d="M 10.914062 4.265625 C 7.890625 4.265625 5.457031 6.089844 5.457031 8.359375 L 7.277344 8.359375 C 7.277344 7.097656 8.898438 6.085938 10.914062 6.085938 C 12.929688 6.085938 14.554688 7.097656 14.554688 8.359375 L 14.554688 13.816406 C 14.554688 15.074219 12.929688 16.089844 10.914062 16.089844 C 9.148438 16.089844 7.683594 15.3125 7.347656 14.269531 L 5.492188 14.269531 C 5.789062 16.324219 8.097656 17.910156 10.914062 17.910156 C 13.9375 17.910156 16.371094 16.082031 16.371094 13.816406 L 16.371094 8.359375 C 16.371094 6.089844 13.9375 4.265625 10.914062 4.265625 Z M 10.914062 4.265625 "/>
</g>
</svg>

<svg xmlns="http://www.w3.org/2000/svg" width="22pt" height="22pt" viewBox="0 0 22 22"><path d="M10.914 4.266c-3.023 0-5.457 1.824-5.457 4.093h1.82c0-1.261 1.621-2.273 3.637-2.273s3.64 1.012 3.64 2.273v5.457c0 1.258-1.624 2.274-3.64 2.274-1.766 0-3.23-.777-3.566-1.82H5.492c.297 2.054 2.606 3.64 5.422 3.64 3.024 0 5.457-1.828 5.457-4.094V8.36c0-2.27-2.433-4.093-5.457-4.093zm0 0" fill="#bdbdbd"/></svg>
